svg/Filled/layers_filled.svg

<svg viewBox="0 0 24 24" xmlns="http://www.w3.org/2000/svg" width="24" height="24"><path d="M20.64 15.49c.32.14 1.06.56 1.06 1.36s-.74 1.21-1.06 1.36l-6.9 3.15c-.49.22-1.11.34-1.74.34s-1.26-.12-1.75-.34l-6.9-3.15c-.31-.15-1.05-.57-1.05-1.36s.74-1.22 1.05-1.36l.71-.32 1.81.82 4.39 2c.49.23 1.12.34 1.74.34.63 0 1.26-.1 1.75-.33l6.19-2.83z"/><path d="M20.64 10.64c.32.14 1.06.56 1.06 1.36s-.74 1.22-1.06 1.36l-6.9 3.15c-.48.23-1.11.34-1.74.34a4 4 0 0 1-1.75-.34l-6.9-3.15c-.31-.14-1.05-.57-1.05-1.36s.74-1.22 1.05-1.36l.71-.32 6.2 2.83c.49.23 1.12.34 1.74.34.63 0 1.26-.11 1.75-.34l6.19-2.83z"/><path d="M10.31 2.63a4.5 4.5 0 0 1 3.37 0l6.97 3.17c.31.15 1.05.57 1.05 1.36s-.74 1.21-1.05 1.36l-6.9 3.15c-.5.22-1.12.33-1.75.33s-1.26-.11-1.75-.33l-6.9-3.15c-.31-.14-1.05-.56-1.05-1.36s.74-1.21 1.05-1.36z"/></svg>

<svg viewBox="0 0 24 24" xmlns="http://www.w3.org/2000/svg" width="24" height="24"><path d="M20.64 15.49C20.96 15.63 21.7 16.05 21.7 16.85C21.7 17.65 20.96 18.06 20.64 18.21L13.74 21.36C13.25 21.58 12.63 21.7 12 21.7C11.37 21.7 10.74 21.58 10.25 21.36L3.35 18.21C3.04 18.06 2.3 17.64 2.3 16.85C2.3 16.06 3.04 15.63 3.35 15.49L4.06 15.17L10.26 17.99C10.75 18.22 11.38 18.33 12 18.33C12.63 18.33 13.26 18.23 13.75 18L19.94 15.17Z"/><path d="M20.64 10.64c.32.14 1.06.56 1.06 1.36s-.74 1.22-1.06 1.36l-6.9 3.15c-.48.23-1.11.34-1.74.34a4 4 0 0 1-1.75-.34l-6.9-3.15c-.31-.14-1.05-.57-1.05-1.36s.74-1.22 1.05-1.36l.71-.32 6.2 2.83c.49.23 1.12.34 1.74.34.63 0 1.26-.11 1.75-.34l6.19-2.83z"/><path d="M10.31 2.63a4.5 4.5 0 0 1 3.37 0l6.97 3.17c.31.15 1.05.57 1.05 1.36s-.74 1.21-1.05 1.36l-6.9 3.15c-.5.22-1.12.33-1.75.33s-1.26-.11-1.75-.33l-6.9-3.15c-.31-.14-1.05-.56-1.05-1.36s.74-1.21 1.05-1.36z"/></svg>
